src/images/inkscape-Logo_white.svg

<?xml version="1.0" encoding="UTF-8" standalone="no"?>
<!-- Created with Inkscape (http://www.inkscape.org/) -->

<svg
   width="39.259792"
   height="38.743435"
   viewBox="0 0 39.259794 38.743433"
   version="1.1"
   id="svg5"
   xmlns="http://www.w3.org/2000/svg"
   xmlns:svg="http://www.w3.org/2000/svg">
  <defs
     id="defs2" />
  <g
     id="layer1"
     transform="translate(-534.86833,-332.29555)">
    <path
       id="path2313"
       style="fill:#ffffff;fill-opacity:1;stroke-width:0.107882"
       d="M 554.16325 332.29555 C 552.94931 332.29312 551.74729 332.73398 550.87614 333.62563 L 536.38396 348.45571 C 531.48721 354.51973 539.71757 353.81459 543.24528 355.56117 C 544.51074 356.85468 538.39389 357.80958 539.65935 359.10414 C 540.92479 360.39764 547.31166 361.5958 548.57927 362.8893 C 549.84473 364.1828 545.9896 365.5548 547.25505 366.84828 C 548.52051 368.14178 551.44725 366.91674 551.99528 369.90297 C 552.38582 372.03687 557.26888 370.82058 559.65739 369.07289 C 560.92283 367.77834 557.23569 367.8996 558.50114 366.6061 C 561.64805 363.38798 564.57878 365.43614 565.65544 362.21157 C 566.1873 360.61816 561.0226 359.75505 562.29021 358.46157 C 565.9312 356.33522 578.51537 354.95234 572.54411 348.9811 L 557.52263 333.62563 C 556.60401 332.74369 555.37719 332.29798 554.16325 332.29555 z M 554.29411 333.70766 C 555.16081 333.71224 556.02374 334.03661 556.64567 334.66664 L 562.38005 340.48891 C 562.92378 341.04449 562.91669 342.12069 562.61247 342.43032 L 559.76481 340.15297 L 559.20622 343.52602 L 556.82731 342.27016 L 553.01677 344.67641 L 551.757 339.60414 L 549.71013 343.14321 L 546.58122 343.14321 C 545.30606 343.14321 545.15695 341.52645 546.3156 340.36782 C 548.33944 338.18321 550.66079 335.95691 551.92302 334.66664 C 552.55736 334.01827 553.42742 333.70307 554.29411 333.70766 z M 547.40935 356.36391 C 547.79665 356.60448 553.65354 357.79454 555.08513 358.03188 C 555.58139 358.13652 555.23002 358.64759 554.54606 358.99282 C 553.00336 359.40277 545.52142 356.36391 547.40935 356.36391 z M 570.18474 360.44008 C 569.00613 360.48067 567.84499 361.08258 567.52458 362.21157 C 567.52458 362.9473 572.9445 363.42941 572.9445 362.03774 C 572.55828 360.92009 571.36335 360.39949 570.18474 360.44008 z M 545.10856 363.63149 C 543.46579 363.71875 541.70287 364.90756 543.10466 366.12172 C 544.38845 367.23182 546.37156 365.84668 546.96599 364.2975 C 546.57727 363.78102 545.85529 363.59182 545.10856 363.63149 z M 566.84489 363.72328 C 565.18999 365.20774 567.03013 366.7136 568.6613 365.75453 C 569.02486 365.38557 568.65162 364.09224 566.84489 363.72328 z " />
  </g>
</svg>

<svg xmlns="http://www.w3.org/2000/svg" viewBox="0 0 39.26 38.743"><path d="M554.163 332.296c-1.214-.003-2.416.438-3.287 1.33l-14.492 14.83c-4.897 6.064 3.334 5.359 6.861 7.105 1.266 1.294-4.851 2.249-3.586 3.543 1.266 1.294 7.653 2.492 8.92 3.785 1.266 1.294-2.59 2.666-1.324 3.96 1.266 1.293 4.192.068 4.74 3.054.39 2.134 5.274.918 7.662-.83 1.266-1.295-2.421-1.173-1.156-2.467 3.147-3.218 6.078-1.17 7.154-4.394.532-1.594-4.632-2.457-3.365-3.75 3.641-2.127 16.225-3.51 10.254-9.48l-15.021-15.356c-.919-.882-2.146-1.328-3.36-1.33zm.131 1.412c.867.004 1.73.329 2.352.959l5.734 5.822c.544.555.537 1.632.232 1.941l-2.847-2.277-.559 3.373-2.379-1.256-3.81 2.406-1.26-5.072-2.047 3.54h-3.129c-1.275 0-1.424-1.618-.265-2.776 2.023-2.185 4.345-4.411 5.607-5.701.634-.649 1.504-.964 2.371-.96zm-6.885 22.656c.388.24 6.245 1.43 7.676 1.668.496.105.145.616-.539.96-1.543.41-9.025-2.628-7.137-2.628zm22.776 4.076c-1.179.04-2.34.643-2.66 1.772 0 .735 5.42 1.217 5.42-.174-.387-1.118-1.582-1.639-2.76-1.598zm-25.076 3.191c-1.643.088-3.406 1.277-2.004 2.49 1.283 1.11 3.267-.274 3.861-1.823-.389-.517-1.11-.706-1.857-.667zm21.736.092c-1.655 1.485.185 2.99 1.816 2.032.364-.37-.01-1.663-1.816-2.032z" style="fill:#fff;fill-opacity:1;stroke-width:.107882" transform="translate(-534.868 -332.296)"/></svg>
